X:363
T:
R:polska
S:Av komminister Olof Laurin i Dalhem.
O:Gotland, Dalhem
M:3/4
L:1/16
K:A
ecAc edBG A4|cAce afdf e4|edBd dcAc cBGB|BAdc BAGF E4|
c2c2 cdBG B2A2|cBdc edfg b2a2|afdf fece edBd|ceGB B4 A4::
E2E2 GEGB dBGB|A2A2 cAce agfe|^d2d2 dfed Bagf|e2e2 Bagf edfe|
dced cBdc BAcB|AGBA GFED CDCB,|A,CEA ceag fedc|edFG A4 A,4::
(CEAe) (eAEC) (CEce)|(B,GBe) (eBGB,) (B,GBe)|(B,F^da) (a^dFB,) (B,F^da)|
gfe^d fe^de e=dcd|cAEC A,CEA cedc|dEGB dfed d2c2|acde fBcd eABc|dEFG B4 A4:|

